!!!COM: Gaspar van Weerbeke
!!!CDT: ~1450-~1517
!!!OPR: Missa Princesse d'amourettes
!!!OTL: Credo
!!!ONM: 3
!!!AGN: Mass
!!!SCT: Gas0103c
!!!SCA: Gas0103c
!!!voices: 4
**kern	**text	**kern	**text	**kern	**text	**kern	**text
*part4	*part4	*part3	*part3	*part2	*part2	*part1	*part1
*staff4	*staff4	*staff3	*staff3	*staff2	*staff2	*staff1	*staff1
*I"Bassus	*	*I"Tenor	*	*I"Altus	*	*I"Superius	*
*I'B	*	*I'T	*	*I'A	*	*I'S	*
*clefF4	*	*clefGv2	*	*clefGv2	*	*clefG2	*
*k[]	*	*k[]	*	*k[]	*	*k[]	*
*M3/2	*	*M3/2	*	*M3/2	*	*M3/2	*
*met(O)	*	*met(O)	*	*met(O)	*	*met(O)	*
=1	=1	=1	=1	=1	=1	=1	=1
2r	.	1.r	.	2G	Pa-	1.r	.
2C	Pa-	.	.	4.G	-trem	.	.
.	.	.	.	16ALL	.	.	.
.	.	.	.	16BJJ	.	.	.
4.C	-trem	.	.	2c	.	.	.
16DLL	.	.	.	.	.	.	.
16EJJ	.	.	.	.	.	.	.
=2	=2	=2	=2	=2	=2	=2	=2
2F	.	1.r	.	4r	.	1.r	.
.	.	.	.	4c	om-	.	.
4r	.	.	.	4c	-ni-	.	.
4F	om-	.	.	4c	-pot-	.	.
4F	-ni-	.	.	4d	-en-	.	.
4F	-pot-	.	.	4c	.	.	.
=3	=3	=3	=3	=3	=3	=3	=3
2G	-en-	1.r	.	2B	.	2d	Fa-
4.D	-tem,	.	.	2A	-tem,	4.d	-cto-
8C	.	.	.	.	.	16eLL	.
.	.	.	.	.	.	16fJJ	.
8BBL	.	.	.	4r	.	2g	-rem
8AAJ	.	.	.	.	.	.	.
*	*	*	*	*	*edit	*	*
4GG	.	.	.	4B	fa-	.	.
!!LO:LB:g=original
=4	=4	=4	=4	=4	=4	=4	=4
1.r	.	1.r	.	4B	-cto-	4r	.
.	.	.	.	4B	-rem	4g	ce-
.	.	.	.	4G	ce-	4g	-li
.	.	.	.	2A	.	8f	.
.	.	.	.	.	.	4e	.
.	.	.	.	.	.	16dLL	.
.	.	.	.	.	.	16cJJ	.
.	.	.	.	4G	.	4B	.
=5	=5	=5	=5	=5	=5	=5	=5
1.r	.	1.r	.	4A	.	4A	.
.	.	.	.	4F	.	2d	et
.	.	.	.	2E	.	.	.
.	.	.	.	.	.	4c#i	.
.	.	.	.	4D	-li	4.d	ter-
.	.	.	.	4d	et	.	.
.	.	.	.	.	.	8e	.
=6	=6	=6	=6	=6	=6	=6	=6
1.r	.	1.r	.	4.d	ter-	8fL	.
.	.	.	.	.	.	8gJ	.
.	.	.	.	.	.	2a	.
.	.	.	.	16cLL	.	.	.
.	.	.	.	16BJJ	.	.	.
.	.	.	.	4.c	.	.	.
.	.	.	.	.	.	4.b	.
.	.	.	.	8B	.	.	.
.	.	.	.	4G	.	.	.
.	.	.	.	.	.	8g	.
.	.	.	.	4B	.	[4g	.
=7	=7	=7	=7	=7	=7	=7	=7
2r	.	1.r	.	2A	.	4g]	.
.	.	.	.	.	.	4f#i	.
4r	.	.	.	4.G	-re,	2g	-re,
*	*edit	*	*	*	*	*	*
4G	et	.	.	.	.	.	.
.	.	.	.	8A	.	.	.
4.G	ter-	.	.	8BL	.	2r	.
.	.	.	.	8cJ	.	.	.
.	.	.	.	[4d	et	.	.
16FLL	.	.	.	.	.	.	.
16EJJ	.	.	.	.	.	.	.
!!LO:LB:g=original
=8	=8	=8	=8	=8	=8	=8	=8
4F	.	1.r	.	4d]	.	1.r	.
8EL	.	.	.	2e	ter-	.	.
8DJ	.	.	.	.	.	.	.
4C	.	.	.	.	.	.	.
4E	.	.	.	2c	.	.	.
2D	.	.	.	.	.	.	.
.	.	.	.	4B	.	.	.
=9	=9	=9	=9	=9	=9	=9	=9
1C	-re,	[1.G	Vi-	2c	-re,	4.e	vi-
.	.	.	.	.	.	8e	-si-
.	.	.	.	4r	.	4e	-bi-
*	*	*	*	*	*Xedit	*	*
.	.	.	.	4c	vi-	4e	-li-
4r	.	.	.	4B	.	4d	-um
*	*Xedit	*	*	*	*	*	*
4C	vi-	.	.	4c	-si-	4e	.
=10	=10	=10	=10	=10	=10	=10	=10
4BB	-si-	1.G]	.	4d	-bi-	4d	om-
4C	-bi-	.	.	4c	.	2g	.
4GG	-li-	.	.	4B	-li-	.	.
2C	-um	.	.	4c	-um	4e	.
.	.	.	.	4d	.	2d	-ni-
4BB	.	.	.	[4g	om-	.	.
=11	=11	=11	=11	=11	=11	=11	=11
4.C	om-	2.G	-si-	8g]L	.	4c	-um,
.	.	.	.	8f	.	.	.
.	.	.	.	8e	.	2g	et
8D	.	.	.	8dJ	.	.	.
4E	-ni-	.	.	4g	.	.	.
4C	-um,	2c	-bi-	4e	-ni-	4a	in-
2G	et	.	.	2d	-um,	4b	-vi-
.	.	4B	-li-	.	.	4b	-si-
!!LO:PB:g=original
=12	=12	=12	=12	=12	=12	=12	=12
4.C	in-	2.c	-um	2r	.	4.e	-bi-
8D	.	.	.	.	.	8f	.
8EL	-vi-	.	.	4r	.	8gL	.
8FJ	.	.	.	.	.	8aJ	.
4G	-si-	4B	om-	4d	et	4b	.
4F	-bi-	2c	.	4f	in-	4a	.
4A	.	.	.	4e	-vi-	[4cc	.
=13	=13	=13	=13	=13	=13	=13	=13
4B	.	2.d	-ni-	4d	-si-	4cc]	.
2G	.	.	.	4.g	-bi-	2b	.
.	.	.	.	8f	.	.	.
4A	-li-	4c	.	4.e	-li-	2a	.
2E	-um.	2B	.	.	.	.	.
.	.	.	.	8dL	.	.	.
.	.	.	.	8c	.	4g#i	-li-
.	.	.	.	8BJ	.	.	.
=14	=14	=14	=14	=14	=14	=14	=14
1.r	.	[1.A	-um,	4c	-um.	2.a	-um.
*	*	*	*	*	*edit	*	*
.	.	.	.	4f	Et	.	.
.	.	.	.	4e	in	.	.
.	.	.	.	4d	u-	8gL	.
.	.	.	.	.	.	8fJ	.
.	.	.	.	2c#j	-num	4e	.
.	.	.	.	.	.	[4a	Et
=15	=15	=15	=15	=15	=15	=15	=15
1D	Et	1.A]	.	2.d	Do-	8a]L	.
.	.	.	.	.	.	8g	.
.	.	.	.	.	.	8f	.
.	.	.	.	.	.	8eJ	.
.	.	.	.	.	.	4d	in
.	.	.	.	8cL	.	2g	u-
.	.	.	.	8BJ	.	.	.
2D	in	.	.	2A	-mi-	.	.
.	.	.	.	.	.	4f#i	.
!!LO:LB:g=original
=16	=16	=16	=16	=16	=16	=16	=16
2r	.	1.r	.	2G	-num	1g	-num
2E	u-	.	.	2.G	Je-	.	.
[2C	-num	.	.	.	.	2r	.
.	.	.	.	4A	-sum	.	.
=17	=17	=17	=17	=17	=17	=17	=17
4C]	.	1.r	.	8cL	Chri-	1.r	.
.	.	.	.	8B	.	.	.
4D	.	.	.	8A	.	.	.
.	.	.	.	8GJ	.	.	.
4C	Do	.	.	4A	.	.	.
4BB	.	.	.	2G	.	.	.
2AA	mi-	.	.	.	.	.	.
.	.	.	.	4F#i	.	.	.
=18	=18	=18	=18	=18	=18	=18	=18
2GG	-num,	2B	Je-	2G	-stum,	2d	Do-
2r	.	2.G	-sum	2r	.	4d	-mi-
.	.	.	.	.	.	4e	.
2r	.	.	.	2r	.	8gL	-num
.	.	.	.	.	.	8f	.
.	.	4A	.	.	.	8e	.
.	.	.	.	.	.	8dJ	.
=19	=19	=19	=19	=19	=19	=19	=19
2r	.	4G	Chri-	1.r	.	4e	Je-
.	.	4F	.	.	.	2d	-sum
2AA	Fi-	2E	.	.	.	.	.
.	.	.	.	.	.	4c#j	.
4BB	.	2D	-stum,	.	.	4d	Chri-
[4D	.	.	.	.	.	4f	.
!!LO:LB:g=original
=20	=20	=20	=20	=20	=20	=20	=20
4D]	.	4.A	Fi-	2r	.	2e	.
4C	-li-	.	.	.	.	.	.
.	.	8A	-li-	.	.	.	.
4.D	-um	4A	-um	4r	.	2d	-stum,
*	*	*	*	*	*Xedit	*	*
.	.	2d	De-	2A	Fi-	.	.
8F	.	.	.	.	.	.	.
2E	De-	.	.	.	.	4r	.
.	.	4c	.	4G	-li-	4g	Fi-
=21	=21	=21	=21	=21	=21	=21	=21
4D	-i	2d	-i	4A	-um	4f	-li-
4G	u-	.	.	4B	.	4g	-um
4F	.	4r	.	4A	De-	4a	De-
4G	-ni-	4d	u-	4g	.	4b	-i
8AL	.	4c	-ni-	8eL	.	4a	u-
8FJ	.	.	.	8fJ	.	.	.
4G	.	4B	.	4d	.	[4dd	-ni-
=22	=22	=22	=22	=22	=22	=22	=22
4.D	-ge-	4A	-ge-	2f	-i	8dd]L	.
.	.	.	.	.	.	8ccJ	.
.	.	2d	.	.	.	4b	-ge-
8E	.	.	.	.	.	.	.
4F	.	.	.	4r	.	8aL	.
.	.	.	.	.	.	8gJ	.
4G	.	4B	.	4.d	u-	2g	.
2D	-ni-	2A	-ni-	.	.	.	.
.	.	.	.	8c	.	.	.
.	.	.	.	4A	-ni-	4f#i	-ni-
=23	=23	=23	=23	=23	=23	=23	=23
2GG	-tum.	2G	-tum.	4.B	-ge-	2g	-tum.
.	.	.	.	8c	-ni-	.	.
4r	.	2r	.	2d	-tum.	2r	.
2D	Et	.	.	.	.	.	.
.	.	2r	.	4r	.	2r	.
4AA	ex	.	.	4c	Et	.	.
!!LO:LB:g=original
=24	=24	=24	=24	=24	=24	=24	=24
4.BB	Pa-	1.r	.	4d	.	1.r	.
.	.	.	.	4B	ex	.	.
8C	.	.	.	.	.	.	.
2D	-tre	.	.	4.A	pa-	.	.
.	.	.	.	8B	.	.	.
4r	.	.	.	8cL	.	.	.
.	.	.	.	8dJ	.	.	.
4C	na-	.	.	4e	-tre	.	.
=25	=25	=25	=25	=25	=25	=25	=25
4D	.	1.r	.	4f	na	1.r	.
4BB	.	.	.	4d	.	.	.
4.AA	-tum	.	.	2c	tum	.	.
8BB	.	.	.	.	.	.	.
8CL	.	.	.	4r	.	.	.
8DJ	.	.	.	.	.	.	.
4E	an-	.	.	4c	an-	.	.
=26	=26	=26	=26	=26	=26	=26	=26
4F	-te	1.r	.	4d	-te	1.r	.
4D	om-	.	.	4f	om-	.	.
4C	-ni-	.	.	4e	-ni-	.	.
4C	-a	.	.	4e	-a	.	.
4D	se-	.	.	4f	se-	.	.
4F	.	.	.	[4d	.	.	.
=27	=27	=27	=27	=27	=27	=27	=27
4E	.	1.r	.	4d]	.	1.r	.
4E	.	.	.	4c	.	.	.
2D	.	.	.	4B	.	.	.
.	.	.	.	4.A	.	.	.
4AA	.	.	.	.	.	.	.
.	.	.	.	8G	.	.	.
[4D	.	.	.	[4F	.	.	.
!!LO:PB:g=original
=28	=28	=28	=28	=28	=28	=28	=28
8D]L	.	1.r	.	8F]L	.	2r	.
16C	.	.	.	16E	.	.	.
16BBJ	.	.	.	16DJ	.	.	.
4C	.	.	.	4E	.	.	.
4D	.	.	.	4D	.	2r	.
4BB	.	.	.	2G	-cu-	.	.
2AA	-cu-	.	.	.	.	2c	De-
.	.	.	.	4F#i	.	.	.
=29	=29	=29	=29	=29	=29	=29	=29
2GG	-la.	[1.G	De-	2G	-la.	2B	-um
2r	.	.	.	4r	.	4.B	de
.	.	.	.	4G	De-	.	.
.	.	.	.	.	.	8c	.
2GG	De-	.	.	4B	-um	2d	De-
.	.	.	.	4B	de	.	.
=30	=30	=30	=30	=30	=30	=30	=30
1C	-um	1G]	.	4.c	De-	2e	-o,
.	.	.	.	8B	.	.	.
.	.	.	.	4G	-o,	4r	.
.	.	.	.	4.c	lu-	4g	lu-
2C	de	2c	-um	.	.	4a	.
.	.	.	.	8d	.	.	.
.	.	.	.	4e	.	[4cc	.
=31	=31	=31	=31	=31	=31	=31	=31
*	*	*lig	*	*	*	*	*
2F	De-	1.c	de	2A	-men	8cc]L	.
.	.	.	.	.	.	8b	.
.	.	.	.	.	.	8a	.
.	.	.	.	.	.	8gJ	.
4F	-o,	.	.	4r	.	4a	.
4G	.	.	.	4g	de	4g	-men
2A	lu-	.	.	4e	lu-	4r	.
.	.	.	.	4f	-mi-	[4cc	de
!!LO:LB:g=original
=32	=32	=32	=32	=32	=32	=32	=32
*	*	*col	*	*	*	*	*
1G	-men	1d	De-	2g	-ne,	4cc]	.
.	.	.	.	.	.	4b	lu-
.	.	.	.	4r	.	4.b	-mi-
.	.	.	.	4g	De-	.	.
.	.	.	.	.	.	8a	.
2C	de	[2c	.	4.e	-um	4cc	-ne,
.	.	.	.	.	.	4g	.
.	.	.	.	8f	.	.	.
=33	=33	=33	=33	=33	=33	=33	=33
4.C	lu-	2c]	.	4.g	ve-	4.e	De-
*	*	*Xlig	*	*	*	*	*
8D	.	.	.	8f	.	8f	.
4E	.	4B	.	8eL	.	4g	.
.	.	.	.	8dJ	.	.	.
4F	.	4A	.	4c	.	4a	.
2E	.	2B	-o,	2e	-rum	2g	-um
*	*	*Xcol	*	*	*	*	*
=34	=34	=34	=34	=34	=34	=34	=34
4AA	.	[1.A	lu-	4e	de	4c	ve-
4D	.	.	.	4f	.	4d	.
4C	.	.	.	4e	.	4e	.
4AA	-mi-	.	.	4.c	De-	4f	.
2AA	-ne,	.	.	.	.	2e	-rum
.	.	.	.	8d	.	.	.
.	.	.	.	4e	.	.	.
=35	=35	=35	=35	=35	=35	=35	=35
4r	.	1.A]	.	4f	.	4.c	de
4AA	De-	.	.	2e	-o	.	.
.	.	.	.	.	.	8d	.
4C	-um	.	.	.	.	4e	De-
4D	ve-	.	.	4.a	ve-	4f	.
2AA	-rum.	.	.	.	.	4e	-o
.	.	.	.	8g	.	.	.
.	.	.	.	4f	.	[4a	ve-
!!LO:LB:g=original
=36	=36	=36	=36	=36	=36	=36	=36
1.r	.	1A	-men	4e	.	8a]L	.
.	.	.	.	.	.	8gJ	.
.	.	.	.	4d	.	4f	.
.	.	.	.	4c	.	4e	.
.	.	.	.	4d	.	2d	.
.	.	2A	de	2e	.	.	.
.	.	.	.	.	.	4c#i	.
=37	=37	=37	=37	=37	=37	=37	=37
*	*	*lig	*	*	*	*	*
2r	.	2B	lu-	4d	.	2d	-ro.
.	.	.	.	4.g	.	.	.
2r	.	2G	.	.	.	4r	.
*	*	*Xlig	*	*	*	*	*
.	.	.	.	8fL	.	.	.
.	.	.	.	8e	.	2g	Ge-
.	.	.	.	8dJ	.	.	.
2E	Ge-	2G	-mi-	4.c#j	.	.	.
.	.	.	.	.	.	4e	-ni-
.	.	.	.	8B	.	.	.
=38	=38	=38	=38	=38	=38	=38	=38
4.D	-ni-	2.A	-ne,	2d	-ro.	4.f	-tum,
8E	-tum,	.	.	.	.	8g	.
4F	non	.	.	2r	.	4a	non
2G	fa-	4G	.	.	.	4b	.
.	.	2A	De-	2r	.	2cc	fa-
4F#j	.	.	.	.	.	.	.
=39	=39	=39	=39	=39	=39	=39	=39
2G	-ctum,	2B	-um	2r	.	4b	.
.	.	.	.	.	.	4.g	.
2r	.	2G	ve-	2B	Ge-	.	.
.	.	.	.	.	.	8fL	.
.	.	.	.	.	.	8e	.
.	.	.	.	.	.	8dJ	.
2r	.	4A	-rum	4.A	-ni-	2c	.
*	*	*	*edit	*	*	*	*
.	.	4F	de	.	.	.	.
.	.	.	.	8B	-tum,	.	.
!!LO:LB:g=original
=40	=40	=40	=40	=40	=40	=40	=40
1.r	.	4E	De-	4c	non	4e	.
.	.	4D	-o	2d	fa-	4f	.
.	.	2E	ve-	.	.	4.g	.
.	.	.	.	4c#i	.	.	.
.	.	.	.	.	.	8e	.
.	.	2D	-ro.	2d	-ctum,	2f	-ctum,
=41	=41	=41	=41	=41	=41	=41	=41
*	*edit	*	*	*	*edit	*	*
2G	con-	1.r	.	4.B	con-	2d	con-
.	.	.	.	8c	.	.	.
4F	-sub-	.	.	4d	-sub-	4d	-sub-
4E	-stan-	.	.	2e	-stan-	2g	-stan-
4C	-ti-	.	.	.	.	.	.
[4F	-a-	.	.	[4c	-ti-	[4a	-ti-
=42	=42	=42	=42	=42	=42	=42	=42
8F]L	.	1.r	.	8c]L	.	8a]L	.
8EJ	.	.	.	8dJ	.	8bJ	.
4C	.	.	.	4e	.	4cc	-a-
2D	-lem	.	.	2f	-a-	4a	.
.	.	.	.	.	.	4.dd	-lem
2G	Pa-	.	.	4.d	-lem	.	.
.	.	.	.	.	.	8cc	.
.	.	.	.	.	.	4b	.
.	.	.	.	8e	.	.	.
!!LO:PB:g=original
=43	=43	=43	=43	=43	=43	=43	=43
4D	.	2r	.	4f	Pa-	4a	Pa-
4G	.	.	.	4g	.	4g	.
4A	.	2r	.	4f	.	4cc	.
4G	.	.	.	2g	.	4b	.
*	*	*	*Xedit	*	*	*	*
2D	-tri.	2A	Per	.	.	2a	-tri:
.	.	.	.	4f#i	.	.	.
=44	=44	=44	=44	=44	=44	=44	=44
1.r	.	4.B	quem	2g	-tri:	4.d	per
.	.	8G	.	.	.	8B	.
.	.	4A	.	2r	.	4c	.
.	.	2G	om-	.	.	4B	.
*	*	*	*	*	*Xedit	*	*
.	.	.	.	2c	om-	2A	quem
.	.	4F#i	-ni-	.	.	.	.
=45	=45	=45	=45	=45	=45	=45	=45
1.r	.	1G	-a...	4B	-ni-	2r	.
.	.	.	.	4d	-a	.	.
.	.	.	.	4.e	fa-	2r	.
.	.	.	.	8d	.	.	.
.	.	2r	.	8cL	.	2c	om-
.	.	.	.	8BJ	.	.	.
.	.	.	.	4A	.	.	.
=46	=46	=46	=46	=46	=46	=46	=46
1.r	.	1.r	.	4G	.	4B	-ni-
.	.	.	.	4F	.	4d	-a
.	.	.	.	4E	.	4.e	fa-
.	.	.	.	4G	.	.	.
.	.	.	.	.	.	8d	.
.	.	.	.	4A	.	8cL	.
.	.	.	.	.	.	8BJ	.
.	.	.	.	4F	-cta	4A	.
!!LO:LB:g=original
=47	=47	=47	=47	=47	=47	=47	=47
2r	.	1.r	.	2G	sunt.	4G	.
.	.	.	.	.	.	2g	.
*	*Xedit	*	*	*	*	*	*
2D	Qui	.	.	2A	Qui	.	.
.	.	.	.	.	.	4f#i	-cta
4E	.	.	.	4G	.	[2g	sunt.
[4G	pro-	.	.	[4B	pro-	.	.
=48	=48	=48	=48	=48	=48	=48	=48
8G]L	.	1.r	.	8B]L	.	2g]	.
8F	.	.	.	8cJ	.	.	.
8E	.	.	.	2e	-pter	.	.
8DJ	.	.	.	.	.	.	.
4C	-pter	.	.	.	.	2r	.
4D	.	.	.	2d	nos	.	.
2E	nos	.	.	.	.	2g	Qui
.	.	.	.	4c#i	.	.	.
=49	=49	=49	=49	=49	=49	=49	=49
4.D	ho-	1A	Qui	4.d	ho-	4.f	pro-
16CLL	.	.	.	8e	.	8g	.
16BBJJ	.	.	.	.	.	.	.
4AA	.	.	.	2f	-mi-	2a	-pter
4D	-mi-	.	.	.	.	.	.
2GG	-nes,	4B	pro-	2g	-nes,	4r	.
.	.	[4G	-pter	.	.	4d	nos
!!LO:LB:g=original
=50	=50	=50	=50	=50	=50	=50	=50
*	*edit	*	*	*	*	*	*
4C	et	8G]L	.	2r	.	4e	ho-
.	.	8AJ	nos	.	.	.	.
4BB	pro-	4B	ho-	.	.	8d	.
.	.	.	.	.	.	4g	.
8CL	.	4A	-mi-	2r	.	.	.
8DJ	.	.	.	.	.	8f	.
4BB	-pter	4B	-nes,	.	.	4d	.
4C	no-	2A	et	4r	.	4e	-mi-
4D	.	.	.	4d	et	4f	.
=51	=51	=51	=51	=51	=51	=51	=51
1E	-stram	1G	pro-	4.B	pro-	2g	-nes,
.	.	.	.	8G	.	.	.
.	.	.	.	4B	-pter	2g	et
.	.	.	.	4c	no-	.	.
4.D	sa-	[2A	-pter	4.d	-stram	4.f	pro-
8E	.	.	.	8c	.	8g	.
=52	=52	=52	=52	=52	=52	=52	=52
4F	-lu-	4A]	.	4A	sa-	4a	-pter
*	*	*	*edit	*	*	*	*
4G	.	4B	no-	8G	.	4d	no-
.	.	.	.	2d	-lu-	.	.
4D	.	4A	-stram	.	.	4f	-stram
4E	.	2G	sa-	.	.	4g	sa-
.	.	.	.	8c	.	.	.
2D	-tem	.	.	8dL	.	2a	-lu-
.	.	.	.	8BJ	.	.	.
.	.	4F#i	-lu-	4A	-tem	.	.
!!LO:LB:g=original
=53	=53	=53	=53	=53	=53	=53	=53
2r	.	1G	-tem	4r	.	2b	-tem
.	.	.	.	4G	de-	.	.
*	*Xedit	*	*	*	*	*	*
4C	de-	.	.	4c	-scen-	4r	.
4E	-scen-	.	.	4B	-dit	4g	de-
4F	-dit	2r	.	4A	de	4cc	-scen-
4G	de	.	.	[4d	ce	4b	-dit
=54	=54	=54	=54	=54	=54	=54	=54
2D	ce-	1.r	.	8d]L	.	4a	de
.	.	.	.	8c	.	.	.
.	.	.	.	8B	.	4.dd	ce-
.	.	.	.	8AJ	.	.	.
2G	.	.	.	4G	.	.	.
.	.	.	.	.	.	8ccL	.
.	.	.	.	4g	.	8b	.
.	.	.	.	.	.	8aJ	.
4c	.	.	.	4e	.	4g	.
4A	.	.	.	4f	.	4cc	.
=55	=55	=55	=55	=55	=55	=55	=55
4G	-lis,	1.r	.	4g	.	4b	.
8r	.	.	.	8f	.	8a	.
*	*edit	*	*	*	*	*	*
4C	ce-	.	.	4e	.	4g	.
8DL	.	.	.	8d	.	8f	.
8E	.	.	.	4.c	.	4e	.
8FJ	.	.	.	.	.	.	.
2G	.	.	.	.	.	4.d	.
.	.	.	.	8BL	.	.	.
.	.	.	.	8B	.	.	.
.	.	.	.	8AJ	.	8c	.
=56	=56	=56	=56	=56	=56	=56	=56
*	*	*	*Xedit	*	*	*	*
1.Cl	-lis.	1.Gl	celis.	1.cl	lis.	1.el	-lis.
!!LO:PB:g=original
=57||	=57||	=57||	=57||	=57||	=57||	=57||	=57||
*M2/2	*	*M2/2	*	*M2/2	*	*M2/2	*
*met(C|)	*	*met(C|)	*	*met(C|)	*	*met(C|)	*
*	*Xedit	*	*	*	*	*	*
[1C	Et	1r	.	1r	.	1r	.
=58	=58	=58	=58	=58	=58	=58	=58
2C]	.	1r	.	1r	.	1r	.
2C	in-	.	.	.	.	.	.
=59	=59	=59	=59	=59	=59	=59	=59
2.C	-car-	1r	.	1r	.	1g	Et
8BBL	.	.	.	.	.	.	.
8AAJ	.	.	.	.	.	.	.
=60	=60	=60	=60	=60	=60	=60	=60
2GG	-na-	1r	.	1r	.	2g	in-
2C	.	.	.	.	.	2g	-car-
=61	=61	=61	=61	=61	=61	=61	=61
2BB	-tus	1r	.	1G	Et	2.g	-na-
2GG	est	.	.	.	.	.	.
.	.	.	.	.	.	8fL	.
.	.	.	.	.	.	8eJ	.
=62	=62	=62	=62	=62	=62	=62	=62
2r	.	1r	.	2G	in-	2d	.
2C	de	.	.	2G	-car-	2e	-tus
=63	=63	=63	=63	=63	=63	=63	=63
2.BB	Spi-	1r	.	2.G	-na-	1d	est
4C	-ri-	.	.	8FL	.	.	.
.	.	.	.	8EJ	.	.	.
!!LO:LB:g=original
=64	=64	=64	=64	=64	=64	=64	=64
2D	-tu	1r	.	2D	-tus	2f	de
2C	San-	.	.	2E	est	4g	Spi-
.	.	.	.	.	.	4e	-ri-
=65	=65	=65	=65	=65	=65	=65	=65
*	*	*	*	*	*edit	*	*
4D	.	1r	.	2D	de	4.f	-tu
4BB	.	.	.	.	.	.	.
.	.	.	.	.	.	8g	.
2AA	.	.	.	2F	Spi-	2a	San-
=66	=66	=66	=66	=66	=66	=66	=66
2GG	-cto	1r	.	2G	-ri-	2d	-cto
2r	.	.	.	[2F	-tu	4r	.
.	.	.	.	.	.	[4d	ex
=67	=67	=67	=67	=67	=67	=67	=67
1r	.	1r	.	4F]	.	4d]	.
.	.	.	.	4G	.	4B	Ma-
.	.	.	.	2A	San-	2c	-ri-
=68	=68	=68	=68	=68	=68	=68	=68
1r	.	1r	.	2D	-cto	2d	.
.	.	.	.	4r	.	2G	-a
*	*	*	*	*	*Xedit	*	*
.	.	.	.	[4G	ex	.	.
=69	=69	=69	=69	=69	=69	=69	=69
1r	.	1r	.	4G]	.	4r	.
.	.	.	.	4E	Ma-	4G	Vir-
*	*	*	*	*lig	*	*	*
.	.	.	.	2F	-ri-	2A	.
=70	=70	=70	=70	=70	=70	=70	=70
2r	.	1r	.	2G	.	2B	.
*	*	*	*	*Xlig	*	*	*
4r	.	.	.	2C	-a	4c	.
[4G	ex	.	.	.	.	[4e	.
!!LO:LB:g=original
=71	=71	=71	=71	=71	=71	=71	=71
4G]	.	1r	.	4r	.	8e]L	.
.	.	.	.	.	.	8dJ	.
8FL	.	.	.	4G	Vir-	4e	.
8EJ	.	.	.	.	.	.	.
2D	Ma-	.	.	2A	.	8fL	.
.	.	.	.	.	.	8e	.
.	.	.	.	.	.	8d	.
.	.	.	.	.	.	8cJ	.
=72	=72	=72	=72	=72	=72	=72	=72
2G	-ri-	1r	.	2B	.	2d	-gi-
4E	-a	.	.	4c	.	2c	-ne:
[4C	Vir-	.	.	[4e	.	.	.
=73	=73	=73	=73	=73	=73	=73	=73
8C]L	.	1r	.	8e]L	.	4r	.
8BBJ	.	.	.	8dJ	.	.	.
4C	.	.	.	4e	.	4g	et
2AA	-gi-	.	.	8fL	.	2a	ho-
.	.	.	.	8e	.	.	.
.	.	.	.	8d	.	.	.
.	.	.	.	8cJ	.	.	.
=74	=74	=74	=74	=74	=74	=74	=74
4GG	-ne:	1r	.	2d	-gi-	2b	-mo
4G	et	.	.	.	.	.	.
4A	ho-	.	.	2c	-ne:	4cc	fa-
4F	.	.	.	.	.	4a	.
=75	=75	=75	=75	=75	=75	=75	=75
2G	-mo,	4r	.	4r	.	2b	.
.	.	4r	.	4G	et	.	.
4r	.	2r	.	2A	ho-	4a	.
*	*edit	*	*	*	*	*	*
4F	et	.	.	.	.	4cc	.
=76	=76	=76	=76	=76	=76	=76	=76
2G	ho-	1r	.	2B	-mo	4b	.
.	.	.	.	.	.	4g	.
2F	-mo	.	.	4c	fa-	2a	-ctus,
.	.	.	.	4A	.	.	.
=77	=77	=77	=77	=77	=77	=77	=77
*	*Xedit	*	*	*	*	*	*edit
2G	fa-	1r	.	2B	.	4.d	fa-
.	.	.	.	.	.	8e	.
4D	.	.	.	4A	.	8fL	.
.	.	.	.	.	.	8gJ	.
4C	.	.	.	4c	.	4e	.
!!LO:LB:g=original
=78	=78	=78	=78	=78	=78	=78	=78
4G	.	1r	.	4B	.	4d	.
4E	.	.	.	4G	.	2g	.
2D	-ctus,	.	.	2A	-ctus,	.	.
.	.	.	.	.	.	4f#i	-ctus
=79	=79	=79	=79	=79	=79	=79	=79
*	*edit	*	*	*	*edit	*	*Xedit
4.GG	fa-	1r	.	2.G	fa-	2g	est.
8AA	.	.	.	.	.	.	.
8BBL	.	.	.	.	.	2r	.
8CJ	.	.	.	.	.	.	.
4AA	.	.	.	4F	.	.	.
=80	=80	=80	=80	=80	=80	=80	=80
4GG	-ctus	1r	.	4G	.	1r	.
*	*Xedit	*	*	*	*	*	*
2C	est.	.	.	4E	-ctus	.	.
*	*	*	*	*	*Xedit	*	*
.	.	.	.	2D	est.	.	.
4BB	.	.	.	.	.	.	.
=81	=81	=81	=81	=81	=81	=81	=81
4.C	Cru-	1r	.	4.E	Cru-	2g	Cru-
8D	.	.	.	8F	.	.	.
4E	-ci-	.	.	4G	-ci-	4g	-ci-
4D	.	.	.	4A	.	4f	.
=82	=82	=82	=82	=82	=82	=82	=82
4E	-fi-	1r	.	4G	-fi-	4g	-fi-
4C	.	.	.	2c	.	4e	.
2G	-xus	.	.	.	.	2d	-xus
.	.	.	.	4B	.	.	.
=83	=83	=83	=83	=83	=83	=83	=83
4.C	e-	1r	.	1c	-xus	4.e	e-
8D	-ti-	.	.	.	.	8f	-ti-
4E	-am	.	.	.	.	4g	-am
4F	pro	.	.	.	.	4a	pro
!!LO:LB:g=original
=84	=84	=84	=84	=84	=84	=84	=84
4G	no-	1r	.	4r	.	4g	no-
4A	.	.	.	4c	e-	2cc	.
2G	-bis:	.	.	2d	-ti-	.	.
.	.	.	.	.	.	4b	.
=85	=85	=85	=85	=85	=85	=85	=85
4r	.	1r	.	4c	-am	2cc	-bis:
4A	sub	.	.	4A	pro	.	.
4G	Pon-	.	.	2B	no-	4r	.
4E	.	.	.	.	.	4g	sub
=86	=86	=86	=86	=86	=86	=86	=86
2F	-ti-	1r	.	2A	-bis:	2a	Pon-
2E	-o	.	.	4r	.	4g	.
*	*	*	*	*	*edit	*	*
.	.	.	.	4G	sub	4e	.
=87	=87	=87	=87	=87	=87	=87	=87
4r	.	1r	.	2A	Pon-	2f	-ti-
4D	Pi-	.	.	.	.	.	.
4E	-la-	.	.	4G	.	2e	-o
4C	.	.	.	4E	.	.	.
=88	=88	=88	=88	=88	=88	=88	=88
2D	-to	2r	.	2F	-ti-	4r	.
.	.	.	.	.	.	2d	Pi-
4r	.	2r	.	2E	-o	.	.
4AA	pas-	.	.	.	.	4c	.
=89	=89	=89	=89	=89	=89	=89	=89
4BB	.	1r	.	4D	Pi-	4d	-la-
4GG	.	.	.	2G	-la-	4B	.
2D	-sus,	.	.	.	.	2A	-to
.	.	.	.	4F	.	.	.
!!LO:LB:g=original
=90	=90	=90	=90	=90	=90	=90	=90
*	*edit	*	*	*	*	*	*
4.GG	pas-	1r	.	4G	-to	2r	.
*	*	*	*	*	*Xedit	*	*
.	.	.	.	2d	pas-	.	.
8AA	-sus,	.	.	.	.	.	.
*	*Xedit	*	*	*	*	*	*
4BB	et	.	.	.	.	4.G	pas-
4C	se-	.	.	4e	-sus,	.	.
.	.	.	.	.	.	8A	-sus,
=91	=91	=91	=91	=91	=91	=91	=91
4GG	-pul-	1r	.	4d	et	4B	et
4AA	.	.	.	4c	se-	4c	se-
4BB	.	.	.	8BL	.	4d	-pul-
.	.	.	.	8AJ	.	.	.
4C	-tus	.	.	[4G	-pul-	4e	.
=92	=92	=92	=92	=92	=92	=92	=92
2GG	est.	1r	.	8G]L	.	4d	.
.	.	.	.	8A	.	.	.
.	.	.	.	8B	.	4g	.
.	.	.	.	8cJ	.	.	.
4r	.	.	.	4d	.	4f	.
4G	Et	.	.	4B	.	4b	.
=93	=93	=93	=93	=93	=93	=93	=93
4F	re-	1r	.	4c	.	4a	.
4G	.	.	.	4G	.	2g	.
2D	-sur-	.	.	2A	-tus	.	.
.	.	.	.	.	.	4f#i	-tus
=94	=94	=94	=94	=94	=94	=94	=94
4.GG	-re-	1r	.	1G	est.	2g	est.
8AA	.	.	.	.	.	.	.
4BB	.	.	.	.	.	2r	.
[4C	.	.	.	.	.	.	.
!!LO:LB:g=original
=95	=95	=95	=95	=95	=95	=95	=95
8C]L	.	1r	.	1r	.	2g	Et
8DJ	.	.	.	.	.	.	.
4E	-xit	.	.	.	.	.	.
4D	.	.	.	.	.	4f	.
[4E	ter-	.	.	.	.	[4g	re-
=96	=96	=96	=96	=96	=96	=96	=96
4E]	.	1r	.	1r	.	4g]	.
8DL	.	.	.	.	.	8fL	.
8CJ	.	.	.	.	.	8eJ	.
4BB	-ti-	.	.	.	.	4d	-sur-
4C	-a	.	.	.	.	4g	-re-
=97	=97	=97	=97	=97	=97	=97	=97
4AA	di-	1r	.	2r	.	4a	.
4GG	-e,	.	.	.	.	4b	-xit
*	*	*	*	*	*edit	*	*
2r	.	.	.	2c	Et	4.g	ter-
.	.	.	.	.	.	8f	-ti-
=98	=98	=98	=98	=98	=98	=98	=98
1r	.	1r	.	4B	.	4d	-a
.	.	.	.	2c	re-	4e	di-
.	.	.	.	.	.	2c	-e,
.	.	.	.	8BL	.	.	.
.	.	.	.	8AJ	.	.	.
=99	=99	=99	=99	=99	=99	=99	=99
2C	se-	1r	.	4G	-sur-	1r	.
.	.	.	.	4c	-re-	.	.
4BB	.	.	.	4d	-xit	.	.
*	*	*	*	*	*Xedit	*	*
[4C	-cun-	.	.	[4e	ter-	.	.
=100	=100	=100	=100	=100	=100	=100	=100
4C]	.	1r	.	4e]	.	1r	.
8BBL	.	.	.	8dL	-ti-	.	.
8AAJ	.	.	.	8cJ	.	.	.
4GG	-dum	.	.	2g	-a	.	.
4C	Scri-	.	.	.	.	.	.
!!LO:LB:g=original
=101	=101	=101	=101	=101	=101	=101	=101
4D	.	1r	.	4f	di-	4r	.
4E	.	.	.	4e	.	4g	se-
4F	.	.	.	2d	-e,	4a	-cun-
[4G	-ptu-	.	.	.	.	[4b	-dum
=102	=102	=102	=102	=102	=102	=102	=102
8G]L	.	1r	.	4r	.	4b]	.
8F	.	.	.	.	.	.	.
8E	.	.	.	2e	se-	8aL	.
8DJ	.	.	.	.	.	8gJ	.
4C	.	.	.	.	.	4.cc	Scri-
[4F	.	.	.	4c	.	.	.
.	.	.	.	.	.	8b	.
=103	=103	=103	=103	=103	=103	=103	=103
4F]	.	1r	.	4d	-cun-	8aL	-ptu-
.	.	.	.	.	.	8gJ	.
4G	.	.	.	4B	.	2g	.
2D	-ras,	.	.	2A	-dum	.	.
.	.	.	.	.	.	4f#i	.
=104	=104	=104	=104	=104	=104	=104	=104
*	*edit	*	*	*	*	*	*
4GG	Scri-	1r	.	4r	.	2g	-ras.
2C	-ptu-	.	.	4G	Scri-	.	.
.	.	.	.	4A	.	2r	.
[4D	.	.	.	[4B	-ptu-	.	.
=105	=105	=105	=105	=105	=105	=105	=105
4D]	.	1r	.	4B]	.	1r	.
2E	.	.	.	8AL	.	.	.
.	.	.	.	8GJ	.	.	.
.	.	.	.	4.c	.	.	.
4C	.	.	.	.	.	.	.
.	.	.	.	8B	.	.	.
=106	=106	=106	=106	=106	=106	=106	=106
4D	.	1r	.	8AL	.	1r	.
.	.	.	.	8GJ	.	.	.
4BB	.	.	.	2G	.	.	.
2AA	.	.	.	.	.	.	.
.	.	.	.	4F#i	.	.	.
!!LO:LB:g=original
=107	=107	=107	=107	=107	=107	=107	=107
1GG	-ras.	1r	.	2.G	-ras.	4r	.
.	.	.	.	.	.	2.d	Et
.	.	.	.	4F	.	.	.
=108	=108	=108	=108	=108	=108	=108	=108
1r	.	1r	.	2D	.	2f	a-
.	.	.	.	2C	.	2e	-scen-
=109	=109	=109	=109	=109	=109	=109	=109
1r	.	1r	.	4r	.	2.d	-dit
.	.	.	.	2.G	Et	.	.
.	.	.	.	.	.	4e	in
=110	=110	=110	=110	=110	=110	=110	=110
1r	.	1r	.	2B	a-	4d	ce-
.	.	.	.	.	.	2g	.
.	.	.	.	2A	-scen-	.	.
.	.	.	.	.	.	4f#i	.
=111	=111	=111	=111	=111	=111	=111	=111
4r	.	1r	.	2.G	-dit	2g	-lum:
2.C	Et	.	.	.	.	.	.
.	.	.	.	.	.	2r	.
.	.	.	.	4A	in	.	.
=112	=112	=112	=112	=112	=112	=112	=112
2E	a-	1r	.	4G	ce-	2r	.
.	.	.	.	2c	.	.	.
2D	.	.	.	.	.	2f	se-
.	.	.	.	4B	.	.	.
=113	=113	=113	=113	=113	=113	=113	=113
2.C	-scen-	1r	.	1c	-lum:	2.e	.
4D	.	.	.	.	.	4f	.
=114	=114	=114	=114	=114	=114	=114	=114
2E	-dit	1r	.	2r	.	2g	-det
2E	in	.	.	2B	se-	2g	ad
!!LO:LB:g=original
=115	=115	=115	=115	=115	=115	=115	=115
2.F	ce-	1r	.	2.A	.	2.a	dex-
4G	.	.	.	4B	.	4g	.
=116	=116	=116	=116	=116	=116	=116	=116
2A	-lum:	1r	.	2c	-det	2e	.
2A	se-	.	.	2c	ad	2cc	-te-
=117	=117	=117	=117	=117	=117	=117	=117
2G	.	1r	.	2.d	dex-	2b	-ram
*	*	*	*	*	*	*	*edit
2D	-det	.	.	.	.	2a	Pa-
.	.	.	.	4c	.	.	.
=118	=118	=118	=118	=118	=118	=118	=118
1r	.	1r	.	2A	.	8aL	.
.	.	.	.	.	.	8g	.
.	.	.	.	.	.	8f	.
.	.	.	.	.	.	8eJ	.
.	.	.	.	2f	-te-	2d	.
=119	=119	=119	=119	=119	=119	=119	=119
2AA	ad	1r	.	2e	-ram	2c	-tris,
2D	dex-	.	.	2d	.	4r	.
.	.	.	.	.	.	[4f	Pa-
=120	=120	=120	=120	=120	=120	=120	=120
*	*	*	*	*	*edit	*	*
2BB	.	1r	.	8dL	Pa-	4f]	.
.	.	.	.	8c	.	.	.
.	.	.	.	8B	.	8eL	.
.	.	.	.	8AJ	.	8dJ	.
2C	-te-	.	.	2G	.	2e	.
!!LO:PB:g=original
=121	=121	=121	=121	=121	=121	=121	=121
2D	-ram	1r	.	2F	-tris,	2d	.
4E	.	.	.	4r	.	2G	-tris,
*	*	*	*	*	*Xedit	*	*
[4G	Pa-	.	.	[4B	Pa-	.	.
=122	=122	=122	=122	=122	=122	=122	=122
4G]	.	1r	.	4B]	.	2r	.
8FL	.	.	.	8AL	.	.	.
8EJ	.	.	.	8GJ	.	.	.
*	*	*	*	*	*	*	*Xedit
2F	-tris,	.	.	2A	.	2c	Pa-
=123	=123	=123	=123	=123	=123	=123	=123
4r	.	1r	.	2G	.	4d	.
*	*Xedit	*	*	*lig	*	*	*
4.G	Pa-	.	.	.	.	4.e	.
.	.	.	.	[2C	.	.	.
8F	.	.	.	.	.	8f	.
[4E	.	.	.	.	.	[4g	.
=124	=124	=124	=124	=124	=124	=124	=124
4E]	.	1r	.	2C]	.	4g]	.
8DL	.	.	.	.	.	8fL	.
8CJ	.	.	.	.	.	8eJ	.
4BB	.	.	.	[2G	.	4d	.
4C	.	.	.	.	.	4e	.
=125	=125	=125	=125	=125	=125	=125	=125
4BB	.	1r	.	2G]	.	4d	.
*	*	*	*	*Xlig	*	*	*
4GG	.	.	.	.	.	8cL	.
.	.	.	.	.	.	8BJ	.
2D	.	.	.	2F#i	.	2A	.
=126	=126	=126	=126	=126	=126	=126	=126
1GGl	-tris.	1r	.	1Gl	-tris.	1Gl	-tris.
!!LO:LB:g=original
=127||	=127||	=127||	=127||	=127||	=127||	=127||	=127||
*M2/2	*	*M2/2	*	*M2/2	*	*M2/2	*
*met(C|)	*	*met(C|)	*	*met(C|)	*	*met(C|)	*
1r	.	1r	.	1D	Et	1r	.
=128	=128	=128	=128	=128	=128	=128	=128
1r	.	1r	.	2.D	i-	1d	Et
.	.	.	.	4D	-te-	.	.
=129	=129	=129	=129	=129	=129	=129	=129
1GG	Et	1r	.	2G	-rum	2.d	i-
.	.	.	.	2G	ven-	.	.
.	.	.	.	.	.	4d	-te-
=130	=130	=130	=130	=130	=130	=130	=130
2.GG	i-	1r	.	2B	-tu-	2g	-rum
.	.	.	.	2B	-rus	2g	ven-
4GG	-te-	.	.	.	.	.	.
=131	=131	=131	=131	=131	=131	=131	=131
*	*	*	*Xedit	*	*	*	*
2C	-rum	1G	Et	4.c	est	2.g	-tu-
.	.	.	.	8d	.	.	.
2C	ven-	.	.	2e	.	.	.
.	.	.	.	.	.	4a	-rus
=132	=132	=132	=132	=132	=132	=132	=132
2GG	-tu-	2.G	i-	2.d	cum	2b	est
4r	.	.	.	.	.	2b	cum
4G	-rus	4G	-te-	4e	.	.	.
!!LO:LB:g=original
=133	=133	=133	=133	=133	=133	=133	=133
2.F	est	2c	-rum	1f	glo-	1a	glo-
.	.	2c	ven-	.	.	.	.
*	*edit	*	*	*	*	*	*
4G	cum	.	.	.	.	.	.
=134	=134	=134	=134	=134	=134	=134	=134
2A	glo-	2c	-tu-	2e	-ri-	2a	-ri-
2A	-ri-	2c	-rus	2f	.	2cc	.
=135	=135	=135	=135	=135	=135	=135	=135
2G	-a,	[1d	est	4.g	-a,	2b	-a,
.	.	.	.	8f	.	.	.
4F	.	.	.	2d	.	4a	.
[4G	.	.	.	.	.	[4b	.
=136	=136	=136	=136	=136	=136	=136	=136
4G]	.	1d]	.	1r	.	4b]	.
8FL	.	.	.	.	.	8aL	.
8EJ	.	.	.	.	.	8gJ	.
4D	.	.	.	.	.	4f	.
4E	.	.	.	.	.	4g	.
=137	=137	=137	=137	=137	=137	=137	=137
*	*	*lig	*edit	*	*	*	*
2F	ju-	[1c	cum	1r	.	2a	ju-
2F	-di-	.	.	.	.	2f	-di-
=138	=138	=138	=138	=138	=138	=138	=138
4.C	-ca-	1c]	.	2g	ju-	4.e	-ca-
8D	.	.	.	.	.	8f	.
4E	.	.	.	4g	-di-	4g	.
4F	.	.	.	4f	.	4a	.
!!LO:LB:g=original
=139	=139	=139	=139	=139	=139	=139	=139
1G	-re	1B	.	2d	-ca-	8bL	.
*	*	*Xlig	*	*	*	*	*
.	.	.	.	.	.	8a	.
.	.	.	.	.	.	8g	.
.	.	.	.	.	.	8fJ	.
.	.	.	.	2d	-re	2g	.
=140	=140	=140	=140	=140	=140	=140	=140
2D	vi-	[1A	glo-	2r	.	2a	-re
2F	-vos	.	.	2c	vi-	2r	.
=141	=141	=141	=141	=141	=141	=141	=141
1r	.	1A_	.	4A	.	2cc	vi-
.	.	.	.	4.c	-vos	.	.
.	.	.	.	.	.	4a	.
.	.	.	.	8BL	.	.	.
.	.	.	.	8A	.	[4cc	-vos
.	.	.	.	8GJ	.	.	.
=142	=142	=142	=142	=142	=142	=142	=142
2r	.	1A_	.	2F	.	8cc]L	.
.	.	.	.	.	.	8b	.
.	.	.	.	.	.	8a	.
.	.	.	.	.	.	8gJ	.
2D	et	.	.	4r	.	4f	et
.	.	.	.	4f	et	[4a	mor-
=143	=143	=143	=143	=143	=143	=143	=143
*	*Xedit	*	*	*	*	*	*
4C	mor-	1A]	.	4e	mor-	4a]	.
4BB	.	.	.	4d	.	2g	.
2AA	-tu-	.	.	2c	-tu-	.	.
.	.	.	.	.	.	4f#i	-tu-
=144	=144	=144	=144	=144	=144	=144	=144
*	*	*lig	*	*	*	*	*
1GG	-os:	1B	.	1d	-os:	1g	-os:
!!LO:PB:g=original
=145	=145	=145	=145	=145	=145	=145	=145
*	*	*	*	*	*edit	*	*
2BB	cu-	[1G	.	2d	cu-	1r	.
4.C	-jus	.	.	4e	-jus	.	.
.	.	.	.	[4g	re-	.	.
8D	.	.	.	.	.	.	.
=146	=146	=146	=146	=146	=146	=146	=146
2E	re-	1G]	.	8g]L	.	2g	cu-
*	*	*Xlig	*	*	*	*	*
.	.	.	.	8f	.	.	.
.	.	.	.	8e	.	.	.
.	.	.	.	8dJ	.	.	.
2E	-gni	.	.	2c	-gni	2g	-jus
=147	=147	=147	=147	=147	=147	=147	=147
*col	*edit	*lig	*	*	*	*	*
2.D	non	[1A	.	1d	non	2.f	re-
4E	.	.	.	.	.	4g	-gni
*Xcol	*	*	*	*	*	*	*
=148	=148	=148	=148	=148	=148	=148	=148
4.F	e-	1A]	.	4.c	e-	4.a	non
8D	.	.	.	8d	.	8g	.
4C	.	.	.	4e	.	4e	.
4D	-rit	.	.	4d	-rit	4f	.
=149	=149	=149	=149	=149	=149	=149	=149
4.E	fi-	1G	.	4.B	fi-	4.g	e-
*	*	*Xlig	*	*	*	*	*
8D	.	.	.	8c	.	8f	.
4BB	.	.	.	4d	.	4d	.
4C	.	.	.	4c	.	4e	-rit
!!LO:LB:g=original
=150	=150	=150	=150	=150	=150	=150	=150
*	*	*lig	*	*	*	*	*
2D	.	2F	-ri-	2A	.	2f	fi-
2GG	.	2G	.	2B	.	4d	.
.	.	.	.	.	.	[4e	.
=151	=151	=151	=151	=151	=151	=151	=151
1AA	-nis.	1E	.	1A	-nis.	8eL]	.
*	*	*Xlig	*	*	*	*	*
.	.	.	.	.	.	8d	.
.	.	.	.	.	.	8c#i	.
.	.	.	.	.	.	8BJ	.
.	.	.	.	.	.	2c#i	.
=152	=152	=152	=152	=152	=152	=152	=152
*	*Xedit	*	*	*	*	*	*
2A	Et	[1D	-a.	1r	.	1d	-nis.
4F	in	.	.	.	.	.	.
4D	.	.	.	.	.	.	.
=153	=153	=153	=153	=153	=153	=153	=153
*	*	*	*	*	*Xedit	*	*
4.F	Spi-	1D_	.	2A	Et	1r	.
8G	.	.	.	.	.	.	.
2A	-ri-	.	.	4F	in	.	.
.	.	.	.	4D	.	.	.
=154	=154	=154	=154	=154	=154	=154	=154
2B-i	-tum	1D_	.	4F	Spi-	1r	.
.	.	.	.	4G	.	.	.
4A	.	.	.	4A	.	.	.
[4D	San-	.	.	[4B-i	-ri-	.	.
=155	=155	=155	=155	=155	=155	=155	=155
4D]	.	1D]	.	4B-]	.	1r	.
4C	.	.	.	2A	.	.	.
2BB-i	.	.	.	.	.	.	.
.	.	.	.	4G	.	.	.
!!LO:LB:g=original
=156	=156	=156	=156	=156	=156	=156	=156
1AA	-ctum,	1r	.	4A	-tum	4r	.
.	.	.	.	2e	San-	2cc	San-
.	.	.	.	8dL	.	8b-jL	.
.	.	.	.	8cJ	.	8aJ	.
=157	=157	=157	=157	=157	=157	=157	=157
1r	.	1r	.	2d	-ctum,	2b-j	-ctum,
.	.	.	.	4c	.	4a	.
.	.	.	.	[4d	Do-	[4b-j	Do-
=158	=158	=158	=158	=158	=158	=158	=158
1r	.	1r	.	8d]L	.	8b-]L	.
.	.	.	.	8c	.	8a	.
.	.	.	.	8B-j	.	8g	.
.	.	.	.	8AJ	.	8fJ	.
.	.	.	.	2B-j	-mi-	2g	-mi-
=159	=159	=159	=159	=159	=159	=159	=159
*	*edit	*	*	*	*	*	*
1A	et	1r	.	4A	-num,	1a	-num:
.	.	.	.	2f	et	.	.
.	.	.	.	8eL	.	.	.
.	.	.	.	8dJ	.	.	.
=160	=160	=160	=160	=160	=160	=160	=160
2G	vi-	1r	.	2e	vi-	1r	.
4F	-vi-	.	.	4d	-vi-	.	.
[4G	-fi-	.	.	[4e	-fi-	.	.
!!LO:LB:g=original
=161	=161	=161	=161	=161	=161	=161	=161
8G]L	.	1r	.	8e]L	.	1r	.
8FJ	.	.	.	8dJ	.	.	.
4D	-can-	.	.	2d	-can-	.	.
2E	.	.	.	.	.	.	.
.	.	.	.	4c#i	.	.	.
=162	=162	=162	=162	=162	=162	=162	=162
*	*	*	*Xedit	*	*	*	*
[1D	-tem:	[1A	Qui	1d	-tem:	1f	qui
=163	=163	=163	=163	=163	=163	=163	=163
1D]	.	1A]	.	1r	.	2f	ex
.	.	.	.	.	.	4.f	Pa-
.	.	.	.	.	.	8g	.
=164	=164	=164	=164	=164	=164	=164	=164
*	*Xedit	*	*	*	*	*	*
1F	qui	2A	ex	1r	.	4.a	-tre
.	.	.	.	.	.	8b	.
.	.	2A	Pa-	.	.	2cc	Fi-
=165	=165	=165	=165	=165	=165	=165	=165
4r	.	[1d	-tre	1r	.	2b	-li-
2G	ex	.	.	.	.	.	.
.	.	.	.	.	.	2a	-o-
4F	.	.	.	.	.	.	.
=166	=166	=166	=166	=166	=166	=166	=166
2G	Pa-	2d]	.	2g	qui	2b	.
*	*	*	*edit	*	*	*	*
2D	-tre	2d	Fi-	2f	ex	4a	.
.	.	.	.	.	.	[4b	.
!!LO:PB:g=original
=167	=167	=167	=167	=167	=167	=167	=167
1r	.	2c	-li-	2e	Pa-	4b]	.
.	.	.	.	.	.	2a	.
.	.	2B	-o-	2d	-tre	.	.
.	.	.	.	.	.	[4g	.
=168	=168	=168	=168	=168	=168	=168	=168
2.D	Fi-	1A	-que	2r	.	4g]	.
.	.	.	.	.	.	8fL	.
.	.	.	.	.	.	8eJ	.
.	.	.	.	2d	Fi-	2f	-que
4E	-li-	.	.	.	.	.	.
=169	=169	=169	=169	=169	=169	=169	=169
2F	-o-	2A	pro-	4c	-li-	4r	.
.	.	.	.	4A	-o-	4a	pro-
4G	-que	[2d	-ce-	4G	.	4b	.
4D	.	.	.	4A	-que	4a	.
=170	=170	=170	=170	=170	=170	=170	=170
2G	pro-	2d]	.	4G	pro-	2b	-ce-
.	.	.	.	4.B	-ce-	.	.
2GG	-ce-	2B	.	.	.	[2g	.
.	.	.	.	8c	.	.	.
.	.	.	.	[4d	.	.	.
=171	=171	=171	=171	=171	=171	=171	=171
1D	.	1A	.	4d]	.	2g]	.
.	.	.	.	8cL	.	.	.
.	.	.	.	8BJ	.	.	.
.	.	.	.	2A	.	2f#i	.
=172	=172	=172	=172	=172	=172	=172	=172
1GG	-dit.	1G	-dit.	1B	-dit.	1g	-dit.
!!LO:LB:g=original
=173	=173	=173	=173	=173	=173	=173	=173
*M3/2	*	*M3/2	*	*M3/2	*	*M3/2	*
*met(C|3)	*	*met(C|3)	*	*met(C|3)	*	*met(C|3)	*
!!LO:TX:a:t=[whole] = [whole-dot]
!!LO:TX:a:t=C|3
2GG	Qui	1.r	.	2G	Qui	1.r	.
2AA	.	.	.	2F	.	.	.
2BB	cum	.	.	2D	cum	.	.
=174	=174	=174	=174	=174	=174	=174	=174
1C	Pa-	1.r	.	2.E	Pa-	2.G	Qui
.	.	.	.	4F	.	4A	.
2BB	.	.	.	2G	.	2B	cum
=175	=175	=175	=175	=175	=175	=175	=175
*	*	*	*	*lig	*	*	*
2AA	-tre	1.r	.	2A	-tre	2c	Pa-
2BB	.	.	.	2D	.	2d	.
*	*edit	*	*	*Xlig	*	*	*
2C	et	.	.	2E	et	2c	-tre
=176	=176	=176	=176	=176	=176	=176	=176
1D	Fi-	1.r	.	2.F	Fi-	2.A	et
.	.	.	.	4G	.	4B	.
2C	-li-	.	.	2A	-li-	2c	Fi-
=177	=177	=177	=177	=177	=177	=177	=177
*	*	*	*	*lig	*	*	*
2BB	-o	1.r	.	2B	-o	2d	-li-
2C	.	.	.	2E	.	2e	.
*	*	*	*	*Xlig	*	*	*
2D	.	.	.	2F	.	2d	-o
!!LO:LB:g=original
=178	=178	=178	=178	=178	=178	=178	=178
1E	si-	1.r	.	2.G	si-	2.B	si-
.	.	.	.	4A	.	4c	.
2D	-mul	.	.	2B	-mul	2d	-mul
=179	=179	=179	=179	=179	=179	=179	=179
*	*	*	*	*lig	*	*	*
2C	ad-	1.r	.	2c	ad-	2e	ad-
2D	.	.	.	2F	.	2f	.
*	*	*	*	*Xlig	*	*	*
2E	-o-	.	.	2G	-o-	2e	-o-
=180	=180	=180	=180	=180	=180	=180	=180
1F	-ra-	1.r	.	2.A	-ra-	2.c	-ra-
.	.	.	.	4B	.	4d	.
2E	-tur,	.	.	2c	-tur,	2e	-tur,
=181	=181	=181	=181	=181	=181	=181	=181
*	*	*	*	*lig	*	*	*
2D	et	1.r	.	2d	et	2f	et
2E	.	.	.	2G	.	2g	.
*	*	*	*	*Xlig	*	*	*
2F	con-	.	.	2A	con-	2f	con-
=182	=182	=182	=182	=182	=182	=182	=182
2.G	-glo-	1.r	.	2.B	-glo-	2.d	-glo-
4F	.	.	.	4c	.	4e	.
2D	.	.	.	2d	.	2f	.
!!LO:LB:g=original
=183	=183	=183	=183	=183	=183	=183	=183
2.E	-ri-	1.r	.	2.G	-ri-	2.g	-ri-
4D	.	.	.	4A	.	4f	.
2BB	-fi-	.	.	2B	-fi-	2d	-fi-
=184	=184	=184	=184	=184	=184	=184	=184
*	*	*	*	*	*	*col	*
2.C	-ca-	1.r	.	2.E	-ca-	2.e	-ca-
4BB	.	.	.	4F	.	4d	.
*	*	*	*	*	*	*lig	*
2GG	.	.	.	2G	.	[2B	-tur.
=185	=185	=185	=185	=185	=185	=185	=185
2BB	.	1.r	.	4D	.	2B]	.
.	.	.	.	2G	.	.	.
2C	.	.	.	.	.	1A	.
*	*	*	*	*	*	*Xcol	*
*	*	*	*	*	*	*Xlig	*
.	.	.	.	4E	.	.	.
2D	.	.	.	2F#i	.	.	.
=186	=186	=186	=186	=186	=186	=186	=186
1.GG	-tur:	1.r	.	1.G	-tur:	1.r	.
=187	=187	=187	=187	=187	=187	=187	=187
!!LO:TX:a:t=[whole-dot] = [whole]
!!LO:TX:a:t=C|
*M3/2	*	*M3/2	*	*M3/2	*	*M3/2	*
*met(C|)	*	*met(C|)	*	*met(C|)	*	*met(C|)	*
*	*Xedit	*	*	*	*	*	*
1G	qui	1r	.	2.B	qui	1r	.
.	.	.	.	8cL	.	.	.
.	.	.	.	8dJ	.	.	.
!!LO:PB:g=original
=188	=188	=188	=188	=188	=188	=188	=188
2G	lo-	1r	.	4e	.	1r	.
.	.	.	.	2d	lo-	.	.
[2G	-cu-	.	.	.	.	.	.
.	.	.	.	4B	.	.	.
=189	=189	=189	=189	=189	=189	=189	=189
4G]	.	1r	.	8cL	-cu-	1r	.
.	.	.	.	8B	.	.	.
4E	-tus	.	.	8A	.	.	.
.	.	.	.	8GJ	.	.	.
2F	est	.	.	2A	-tus	.	.
=190	=190	=190	=190	=190	=190	=190	=190
*	*edit	*	*	*	*	*	*
2.G	per	1r	.	4G	est	1r	.
*	*	*	*	*	*edit	*	*
.	.	.	.	2E	per	.	.
4A	.	.	.	4F	.	.	.
=191	=191	=191	=191	=191	=191	=191	=191
2B	pro-	1r	.	2D	Pro-	1r	.
[2c	-phe-	.	.	4C	.	.	.
.	.	.	.	[4E	-phe-	.	.
=192	=192	=192	=192	=192	=192	=192	=192
4c]	.	1r	.	4E]	.	1r	.
4B	.	.	.	4.F	.	.	.
2A	.	.	.	.	.	.	.
.	.	.	.	8E	.	.	.
.	.	.	.	4F	.	.	.
!!LO:LB:g=original
=193	=193	=193	=193	=193	=193	=193	=193
4B	.	1r	.	4.G	.	1r	.
2G	.	.	.	.	.	.	.
.	.	.	.	8F	.	.	.
.	.	.	.	4E	.	.	.
4F	.	.	.	4D	.	.	.
=194	=194	=194	=194	=194	=194	=194	=194
4E	.	1r	.	1G	-tas,	1r	.
4D	.	.	.	.	.	.	.
2C	-tas,	.	.	.	.	.	.
=195	=195	=195	=195	=195	=195	=195	=195
4BB	per	1r	.	2.G	per	1r	.
2GG	Pro-	.	.	.	.	.	.
4AA	.	.	.	4C	Pro-	.	.
=196	=196	=196	=196	=196	=196	=196	=196
4BB	-phe-	1r	.	4G	-phe-	1r	.
4C	.	.	.	4E	.	.	.
4D	.	.	.	2D	.	.	.
4BB	.	.	.	.	.	.	.
=197	=197	=197	=197	=197	=197	=197	=197
*	*	*	*Xedit	*	*	*	*
[1C	-tas.	[1G	Et	1C	-tas.	2r	.
.	.	.	.	.	.	2c	Et
!!LO:LB:g=original
=198	=198	=198	=198	=198	=198	=198	=198
*	*	*	*	*	*Xedit	*	*
1C]	.	1G]	.	2c	Et	2e	u-
.	.	.	.	2c	u-	4e	-nam
.	.	.	.	.	.	4e	san-
=199	=199	=199	=199	=199	=199	=199	=199
*	*Xedit	*	*	*	*	*	*
2C	Et	[1G	u-	2e	-nam	2g	-ctam
2C	u-	.	.	4e	san-	4g	ca-
.	.	.	.	[4g	-ctam	[4e	-tho-
=200	=200	=200	=200	=200	=200	=200	=200
[1C	-nam	1G]	.	4g]	.	4e]	.
*	*	*	*	*	*edit	*	*
.	.	.	.	4g	ca-	4c	-li-
.	.	.	.	2e	-tho-	4c	-cam
.	.	.	.	.	.	8BL	.
.	.	.	.	.	.	8AJ	.
=201	=201	=201	=201	=201	=201	=201	=201
*	*	*lig	*	*	*	*	*
1C]	.	[1c	-nam	4c	-li-	2G	.
.	.	.	.	2c	-cam	.	.
.	.	.	.	.	.	2r	.
.	.	.	.	8BL	.	.	.
.	.	.	.	8AJ	.	.	.
=202	=202	=202	=202	=202	=202	=202	=202
*	*edit	*	*	*	*	*	*
2C	san-	1c_	.	2G	.	2g	et
2C	-ctam	.	.	4r	.	2e	a-
.	.	.	.	4G	et-	.	.
!!LO:LB:g=original
=203	=203	=203	=203	=203	=203	=203	=203
2E	ca-	1c]	.	2G	-a-	4c	-po-
.	.	.	.	.	.	2g	-sto-
2E	-tho-	.	.	2G	-po-	.	.
.	.	.	.	.	.	4g	-li-
=204	=204	=204	=204	=204	=204	=204	=204
1D	-li-	1d	.	2A	-sto-	1f	-cam
*	*	*Xlig	*	*	*	*	*
.	.	.	.	2A	-li-	.	.
=205	=205	=205	=205	=205	=205	=205	=205
*lig	*	*lig	*	*	*	*	*
1AA	-cam	1c	san-	2.A	-cam	2e	Ec-
.	.	.	.	.	.	[2a	-cle-
.	.	.	.	4G	.	.	.
=206	=206	=206	=206	=206	=206	=206	=206
1E	.	1B	.	2E	.	2a]	.
*Xlig	*	*Xlig	*	*	*	*	*
.	.	.	.	2r	.	2g	.
=207	=207	=207	=207	=207	=207	=207	=207
4.AA	Ec-	[1A	-ctam...	4.C	Ec-	4f	.
.	.	.	.	.	.	2e	.
8BB	.	.	.	8D	.	.	.
4C	-cle-	.	.	4E	-cle-	.	.
4D	-si-	.	.	4F	.	[4d	.
!!LO:PB:g=original
=208	=208	=208	=208	=208	=208	=208	=208
2AA	-am.	1A_	.	2E	-si-	4d]	.
.	.	.	.	.	.	4c#i	.
2r	.	.	.	[2D	-am.	4.d	.
.	.	.	.	.	.	8e	.
=209	=209	=209	=209	=209	=209	=209	=209
1r	.	1A]	.	1D]	.	4f	.
.	.	.	.	.	.	2g	.
.	.	.	.	.	.	4f#i	-si-
=210	=210	=210	=210	=210	=210	=210	=210
*	*	*	*	*	*Xedit	*	*
1r	.	1r	.	1E	Con-	1g	-am.
=211	=211	=211	=211	=211	=211	=211	=211
*	*Xedit	*	*	*	*	*	*
2.C	Con-	1r	.	2G	-fi-	1r	.
.	.	.	.	2A	.	.	.
4D	.	.	.	.	.	.	.
=212	=212	=212	=212	=212	=212	=212	=212
4E	-fi-	1r	.	4G	.	1r	.
4F	.	.	.	2A	-te-	.	.
2D	-te-	.	.	.	.	.	.
.	.	.	.	8GL	.	.	.
.	.	.	.	8FJ	.	.	.
!!LO:LB:g=original
=213	=213	=213	=213	=213	=213	=213	=213
1C	-or	1r	.	2E	-or	1r	.
.	.	.	.	2r	.	.	.
=214	=214	=214	=214	=214	=214	=214	=214
*	*edit	*	*	*	*	*	*
2E	u-	1r	.	2c	u-	2g	U-
2F	-num	.	.	4.c	-num	2a	-num
.	.	.	.	8d	.	.	.
=215	=215	=215	=215	=215	=215	=215	=215
4E	ba-	1r	.	4e	ba-	4g	ba-
4D	.	.	.	4f	.	2a	-pti-
4.F	-pti-	.	.	2d	-pti-	.	.
.	.	.	.	.	.	8gL	.
8G	.	.	.	.	.	8fJ	.
=216	=216	=216	=216	=216	=216	=216	=216
2A	-sma	1r	.	2c	-sma	2e	-sma
*	*	*	*	*	*edit	*	*
2AA	in	.	.	2e	in	2cc	in
=217	=217	=217	=217	=217	=217	=217	=217
4AA	re-	1r	.	4e	re-	4cc	re-
2C	-mis-	.	.	2e	-mis-	2cc	-mis-
4D	-si-	.	.	4d	-si-	4b	-si-
!!LO:LB:g=original
=218	=218	=218	=218	=218	=218	=218	=218
4.F	-o-	1r	.	4c	-o-	4.a	-o-
.	.	.	.	2d	.	.	.
8D	.	.	.	.	.	8g	.
2A	-nem	.	.	.	.	2e	.
.	.	.	.	4c#i	.	.	.
=219	=219	=219	=219	=219	=219	=219	=219
*	*	*lig	*	*	*	*	*
1r	.	1B	Con-	4d	-nem	2d	-nem
.	.	.	.	2G	pec-	.	.
.	.	.	.	.	.	4r	.
.	.	.	.	[4B	-ca-	[4g	pec-
=220	=220	=220	=220	=220	=220	=220	=220
1r	.	[1G	.	8B]J	.	4g]	.
.	.	.	.	8cL	.	.	.
.	.	.	.	4d	.	4.b	-ca-
.	.	.	.	4G	.	.	.
.	.	.	.	.	.	8cc	.
.	.	.	.	[4g	-to-	[4dd	-to-
=221	=221	=221	=221	=221	=221	=221	=221
1r	.	1G]	.	4g]	.	4dd]	.
*	*	*Xlig	*	*	*	*	*
.	.	.	.	8fL	.	2cc	.
.	.	.	.	8eJ	.	.	.
.	.	.	.	2d	.	.	.
.	.	.	.	.	.	4b	.
=222	=222	=222	=222	=222	=222	=222	=222
*	*Xedit	*lig	*	*	*	*	*
2AA	Et	[1A	-fi-	2c	-rum.	1cc	-rum.
4.AA	ex-	.	.	4r	.	.	.
*	*	*	*	*	*Xedit	*	*
.	.	.	.	[4e	Et	.	.
8BB	.	.	.	.	.	.	.
!!LO:LB:g=original
=223	=223	=223	=223	=223	=223	=223	=223
4C	.	1A]	.	4e]	.	4r	.
2.D	.	.	.	4.f	ex-	2a	Et
.	.	.	.	8e	.	.	.
.	.	.	.	4f	.	8gL	ex-
.	.	.	.	.	.	8fJ	.
=224	=224	=224	=224	=224	=224	=224	=224
4E	.	1G	.	4g	.	4.e	-spe-
*	*	*Xlig	*	*	*	*	*
4C	.	.	.	4.e	.	.	.
.	.	.	.	.	.	8f	.
4.C	-spe-	.	.	.	.	2g	-cto
.	.	.	.	8d	.	.	.
.	.	.	.	4e	.	.	.
8BB	.	.	.	.	.	.	.
=225	=225	=225	=225	=225	=225	=225	=225
*	*	*lig	*	*	*	*	*
1D	-cto	1F	-te-	4f	.	4r	.
*	*	*	*	*	*	*	*edit
.	.	.	.	4.d	.	2a	re-
.	.	.	.	8c	.	.	.
.	.	.	.	4d	.	4dd	-sur-
=226	=226	=226	=226	=226	=226	=226	=226
2r	.	1E	.	4e	.	4g	.
.	.	.	.	4c	.	4.cc	-re-
*	*edit	*Xlig	*	*	*	*	*
2AA	re-	.	.	4.c	-spe-	.	.
.	.	.	.	.	.	8bL	.
.	.	.	.	.	.	8a	.
.	.	.	.	8B	.	8gJ	.
=227	=227	=227	=227	=227	=227	=227	=227
2A	-sur-	1D	-or...	2d	-cto	4.f	-cti-
.	.	.	.	.	.	8g	.
4.F	-re-	.	.	4r	.	4a	.
*	*	*	*	*	*edit	*	*
.	.	.	.	4D	re-	4b-i	.
8G	.	.	.	.	.	.	.
!!LO:LB:g=original
=228	=228	=228	=228	=228	=228	=228	=228
4A	-cti-	2r	.	4F	-sur-	4a	-o-
4B-i	.	.	.	4G	-re-	2g	.
2A	.	2A	Et	2D	-cti-	.	.
.	.	.	.	.	.	4f#i	.
=229	=229	=229	=229	=229	=229	=229	=229
4.G	-o-	2B-j	ex-	2d	-o-	2g	-nem
8D	.	.	.	.	.	.	.
4F	.	4A	.	4c	.	4r	.
4G	.	[4G	-spe-	4B	.	[4d	mor-
=230	=230	=230	=230	=230	=230	=230	=230
2D	-nem	4G]	.	2A	.	4d]	.
.	.	4F#i	.	.	.	4d	-tu-
4E	.	2G	-cto	4G	.	4B	-o-
[4G	mor-	.	.	4B	.	4G	.
=231	=231	=231	=231	=231	=231	=231	=231
*	*	*lig	*edit	*	*	*	*
4G]	.	1A	re-	4A	.	2c	-rum,
8F#iL	.	.	.	2c	.	.	.
8EJ	.	.	.	.	.	.	.
2F#i	-tu-	.	.	.	.	2r	.
.	.	.	.	8BL	.	.	.
.	.	.	.	8AJ	.	.	.
=232	=232	=232	=232	=232	=232	=232	=232
4G	.	1B	-sur-	2G	-nem	4r	.
*	*	*Xlig	*	*	*	*	*
4GG	-o-	.	.	.	.	2g	mor-
4BB	.	.	.	2r	.	.	.
4C	.	.	.	.	.	8fL	.
.	.	.	.	.	.	8eJ	.
!!LO:LB:g=original
=233	=233	=233	=233	=233	=233	=233	=233
2D	.	2A	-re-	4r	.	8fL	-tu-
.	.	.	.	.	.	8e	.
.	.	.	.	2d	mor-	8d	.
.	.	.	.	.	.	8cJ	.
4G	.	4G	-cti-	.	.	4B	-o-
[4F	.	[4A	-o-	[4f	-tu-	[4c	.
=234	=234	=234	=234	=234	=234	=234	=234
8F]L	.	8A]L	.	8f]L	.	8c]L	.
8GJ	.	8G	.	8eJ	.	8B	.
4E	.	8F	.	4c	-o-	8A	.
.	.	8EJ	.	.	.	8GJ	.
2D	.	2F#i	.	2d	.	2A	-rum.
=235	=235	=235	=235	=235	=235	=235	=235
1GG	-rum.	[1G	-nem.	2B	-rum.	4r	.
*	*	*	*	*	*	*	*Xedit
.	.	.	.	.	.	4G	Et
.	.	.	.	4r	.	4.B	vi-
*	*	*	*	*	*Xedit	*	*
.	.	.	.	4G	Et	.	.
.	.	.	.	.	.	8c	.
=236	=236	=236	=236	=236	=236	=236	=236
2r	.	1G]	.	4.B	vi-	4d	.
.	.	.	.	.	.	4e	-tam
.	.	.	.	8c	.	.	.
*	*Xedit	*	*	*	*	*	*
4GG	Et	.	.	4d	.	4d	.
4C	vi-	.	.	4e	-tam	4g	ven-
=237	=237	=237	=237	=237	=237	=237	=237
4D	-tam	1r	.	4d	.	4f	.
*	*edit	*	*	*	*	*	*
4.C	ven-	.	.	2g	ven-	2e	-tu-
8DL	.	.	.	.	.	.	.
8E	.	.	.	8fL	.	8dL	.
8FJ	.	.	.	8eJ	.	8cJ	.
!!LO:LB:g=original
=238	=238	=238	=238	=238	=238	=238	=238
2G	-tu-	1r	.	4d	.	2B	.
.	.	.	.	2g	-tu-	.	.
2D	-ri	.	.	.	.	2A	-ri
.	.	.	.	4f#j	.	.	.
=239	=239	=239	=239	=239	=239	=239	=239
4.E	se-	1r	.	4g	-ri	4r	.
.	.	.	.	4G	se-	2g	se-
8D	.	.	.	.	.	.	.
4BB	.	.	.	4B	.	.	.
4AA	.	.	.	4c	.	8fL	.
.	.	.	.	.	.	8eJ	.
=240	=240	=240	=240	=240	=240	=240	=240
4BB	.	1r	.	4d	-cu-	4d	.
4GG	.	.	.	8cL	.	2g	.
.	.	.	.	8BJ	.	.	.
2D	-cu-	.	.	2A	-li.	.	.
.	.	.	.	.	.	4f#i	-cu-
=241	=241	=241	=241	=241	=241	=241	=241
2GG	-li.	1r	.	4.G	A-	4g	-li.
.	.	.	.	.	.	4.dd	A-
.	.	.	.	8A	.	.	.
4.G	A-	.	.	8BL	.	.	.
.	.	.	.	8cJ	.	8ccL	.
.	.	.	.	4d	.	8b	.
8F	.	.	.	.	.	8aJ	.
=242	=242	=242	=242	=242	=242	=242	=242
4E	.	1r	.	4e	.	4g	.
4D	.	.	.	4f	.	4a	.
4G	.	.	.	4g	.	4b	.
4A	.	.	.	4e	.	4cc	.
!!LO:LB:g=original
=243	=243	=243	=243	=243	=243	=243	=243
4F	.	1r	.	8fL	.	4a	.
.	.	.	.	8e	.	.	.
2G	.	.	.	8d	.	4b	.
.	.	.	.	8cJ	.	.	.
.	.	.	.	4B	.	4g	.
[4F	.	.	.	[4c	.	[4a	.
=244	=244	=244	=244	=244	=244	=244	=244
4F]	.	1r	.	8c]L	.	4a]	.
.	.	.	.	8dJ	.	.	.
4G	.	.	.	4B	.	2g	.
2D	-men,	.	.	4.A	.	.	.
.	.	.	.	.	.	4f	.
.	.	.	.	8B	.	.	.
=245	=245	=245	=245	=245	=245	=245	=245
4r	.	1r	.	4c	.	4e	.
*	*Xedit	*	*Xedit	*	*	*	*
4D	a-	.	.	4d	.	4f	.
4A	.	.	.	4c	.	4e	.
4F	.	.	.	4d	.	4f	.
=246	=246	=246	=246	=246	=246	=246	=246
4G	.	1r	.	4B	.	4d	.
4E	.	.	.	4c	.	2g	.
2D	.	.	.	2A	.	.	.
.	.	.	.	.	.	4f#i	.
=247	=247	=247	=247	=247	=247	=247	=247
1GGl	-men.	1Gl	[A]-<i>men.</i>	1Gl	-men.	1gl	-men.
==	==	==	==	==	==	==	==
*-	*-	*-	*-	*-	*-	*-	*-
!!!system-decoration: [*]
!!!RDF**kern: j = editorial accidental, optional, paren up
!!!RDF**kern: i = editorial accidental
!!!RDF**kern: l = terminal breve
!!!PTL: Gaspar van Weerbeke: Collected Works. I. Masses, Part 1
!!!PPR: American Institute of Musicology
!!!PC#: Corpus Mensurabilis Musicae 106/I.1
!!!PDT: 2016
!!!PED: Pavanello, Agnese
!!!YEM: CC-BY-SA 4.0 (https://creativecommons.org/licenses/by-nc/4.0/legalcode)
!!!EED: Mair-Gruber, Roland
!!!EEV: 2021/11/02
